X:1
T:The Battle of New Orleans
M:2/4
L:1/8
K:D
 A,| DD FE/2-D/2| GG B A/2F/2| AF ED| B,3 A,| DD FE/2-D/2| GG BA/2-F/2|\
 AF E/2E/2 D| D3 d| BA AB/2-c/2| d2 d3/2 B/2| A3/2 F/2 ED| F3 A,| DD FE/2-D/2|\
 GG BA/2-F/2| AF ED| D2 z||
